X: 1
T: Zemer Atik
O: Israel
Z: John Chambers <jc:trillian.mit.edu>
M: 4/4
L: 1/8
K: Em
P: Em
[| "B"^decd efde | f8 | "Am"fgab agfe | "B"f8 |
w: Od na-shu-va el ni-gun a-tik, ve ha ze-mer yif ve  ye-'e-rav.
| "B"fbba aggf | "Em"e2f2 "B"^d4 | "Am"^decd efdc | "B"B8 |]
w: Od ga-vi-a me-shu-mar,~ na-shik, na-shik, A-li-zei ei-na-yim ve-lei-vav.
[| "G"b4 b4 | "D"abag "B"a2f2  | "Em"g6 fe | "B"f2b2 f2B2 |
w: To-vu to-vu o-ha-lei-nu. Ki ma-chol hi-fi-tsi-a,
| "G"b4 b4 | "D"abag "B"a2f2  | "Em"efge "B"fgf^d | "Em"e8 |]
w: To-vu to-vu o-ha-lei-nu. Od na-shu-va el ni-gun a-tik.
w:
P: Am
K: Am
[| "E"^GAFG ABGA | B8 | "Dm"Bcde dcBA | "E"B8 \
| Beed dccB | "Am"A2B2 "E"^G4 | "Dm"^GAFG ABGF | "E"E8 |]
[| "C"e4 e4 | "G"dedc "E"d2B2  | "Am"c6 BA | "E"B2e2 B2E2 \
| "C"e4 e4 | "G"dedc "E"d2B2  | "Am"ABcA "E"BcB^G | "Am"A8 |]

